X:595
T:Mc Cann's Waltz
A:Wyresdale, Lancashire
B:E and J Winder, 1835-41
L:1/8
M:3/4
O:England
Z:Richard Robinson 
%%TUNEURL: http://www.leeds.ac.uk/music/Info/RRTuneBk/gettune/00000ee4.html
%%ID:00000ee4
K:Eb
B2 |\
B4 (3eBG | E4 (3EFG | A4 (3cAF | E2D2 B,2 |\
E2EGEB, | E2EGEB, | EGBGAF | E2E2 ::
B2 |\
eBGBeB | eBGBeB | dBFBdB | e4 (E/F/G/A/) |\
B4 (A/G/F/E/) | c4 ec | BGEGFD | E4 ::
F2 |\
(3DFB (3DFB (3DFB | (3EGB (3EGB (3EGB | \
(3F=Ac ((3ecA) (3FAc | (3Bdc (3BAG FGE |
(3DFB (3DFB (3DFB | (3EGB (3EGB (3EGB | \
(3F=Ac (3ec=A (3FG=A | B4 ::
